X:1
T:Title
%%score { ( 1 3 ) | 2 }
L:1/8
M:4/4
K:G
V:1 treble nm="Grand Piano"
V:3 treble 
V:2 bass 
V:1
 z4 z2[Q:1/4=100] D2 | [DB]>[DB] [DB]>[DB] [Ec]>[DB] [CA]>[B,G] | A2 G2 E2 [EG]2 | z2 .G2 z4 | %4
[M:3/4] B2 A4 |[M:1/4] D2 |[M:4/4] [DB]>[DB] [DB]>[DB] [Ec]>[DB] [CA]>[B,G] | A2 G2 E2 [Ee]2 | %8
 [Gd]6 [GB]2 |[M:3/4] [FA]2 G4 |[M:1/4] G2 |[M:4/4] c6 z2 | B6 z2 | [Fd]3 [Fd] [FA]2 [Fc]2 | %14
[M:3/4] c2 B4 |[M:1/4] D2 |[M:4/4] [DB]>[DB] [DB]>[DB] [Ec]>[DB] [CA]>[B,G] | A2 G2 E2 [Ee]2 | %18
 [Gd]6 [GB]2 |[M:3/4] [FA]2 [DG]4 |] %20
V:2
 z4 z2 D,2 | [G,,G,]>[G,,G,] [G,,G,]>[G,,G,] [G,,G,]>[G,,G,] [G,,G,]>[G,,G,] | %2
 [C,E,C]2 [C,E,C]2 [C,G,C]2 [C,G,]2 | [G,,G,]2 [G,,G,]2 [B,,G,]2 [G,,G,]2 | %4
[M:3/4] [D,G,D]2 [D,F,D]4 |[M:1/4] [D,F,]2 | %6
[M:4/4] [G,,G,]>[G,,G,] [G,,G,]>[G,,G,] [G,,G,]>[G,,G,] [G,,G,]>[G,,G,] | %7
 [C,E,C]2 [C,E,C]2 [C,G,C]2 [C,C]2 | [D,B,]6 [D,D]2 |[M:3/4] [D,C]2 [G,B,]4 |[M:1/4] z2 | %11
[M:4/4] z2 (3[C,G,][C,G,][C,G,] [C,G,]2 z2 | z2[K:treble] (3[G,D][G,D][G,D] [G,D]2 [G,B,G]2 | %13
 [D,A,]3 [D,A,] [D,D]2 [D,D]2 |[M:3/4][K:treble] [G,DF]2 [G,DG]4 |[M:1/4][K:bass] D,2 | %16
[M:4/4] [G,,G,]>[G,,G,] [G,,G,]>[G,,G,] [G,,G,]>[G,,G,] [G,,G,]>[G,,G,] | %17
 [C,E,C]2 [C,E,C]2 [C,G,C]2 [C,C]2 | [D,B,]6 [D,D]2 |[M:3/4] [D,C]2 [G,B,]4 |] %20
V:3
 x8 | x8 | x8 | [B,D]2 D-[DB] [Dd]2 [B,G]2 |[M:3/4] x6 |[M:1/4] x2 |[M:4/4] x8 | x8 | x8 | %9
[M:3/4] x6 |[M:1/4] x2 |[M:4/4] z2 (3EEE E2 (3EGc | z2 (3GGG G2 B2 | x8 |[M:3/4] x6 |[M:1/4] x2 | %16
[M:4/4] x8 | x8 | x8 |[M:3/4] x6 |] %20

